src/shared/assets/character/icon-feedback.svg

<svg width="24" height="24" viewBox="0 0 24 24" fill="none" xmlns="http://www.w3.org/2000/svg">
<path d="M6.44208 2.90944C8.21108 2.55944 9.72408 3.08944 10.8501 3.80645C11.0077 3.90676 11.134 4.0492 11.2148 4.21764C11.2955 4.38607 11.3275 4.57377 11.3071 4.75944L11.0631 6.98445L14.5301 9.15144C14.6656 9.2361 14.7789 9.352 14.8604 9.48944C14.9419 9.62688 14.9893 9.78186 14.9986 9.94139C15.008 10.1009 14.9789 10.2604 14.9139 10.4063C14.8489 10.5523 14.7499 10.6806 14.6251 10.7804L12.0801 12.8154L15.1302 17.0061C15.2037 17.1154 15.255 17.2382 15.2809 17.3674C15.3069 17.4965 15.3071 17.6296 15.2815 17.7588C15.2559 17.8881 15.205 18.011 15.1317 18.1205C15.0585 18.23 14.9643 18.324 14.8546 18.397C14.7449 18.47 14.6218 18.5206 14.4925 18.5459C14.3632 18.5712 14.2302 18.5707 14.1011 18.5444C13.9719 18.5181 13.8493 18.4665 13.7402 18.3927C13.631 18.3189 13.5376 18.2242 13.4652 18.1141L9.90708 13.1604C9.76852 12.9522 9.71302 12.6996 9.75152 12.4525C9.79002 12.2054 9.91974 11.9816 10.1151 11.8254L12.2731 10.0994L9.47008 8.34745C9.31055 8.24773 9.18238 8.10503 9.1003 7.93575C9.01822 7.76646 8.98557 7.57746 9.00608 7.39044L9.24608 5.19845C8.53908 4.86144 7.72808 4.69444 6.82908 4.87144C5.71408 5.09144 4.62108 5.85345 4.00908 7.02445C3.40908 8.16945 3.23008 9.78345 4.09008 11.7794C4.71008 13.2194 5.97208 14.6904 7.45908 16.0534C8.93008 17.4014 10.5441 18.5734 11.7811 19.4354C11.845 19.4802 11.9211 19.5042 11.9991 19.5042C12.0771 19.5042 12.1532 19.4802 12.2171 19.4354C13.4551 18.5744 15.0681 17.4014 16.5401 16.0524C18.0271 14.6904 19.2881 13.2194 19.9091 11.7794C20.7691 9.78345 20.5901 8.16945 19.9911 7.02445C19.3781 5.85345 18.2851 5.09144 17.1701 4.87144C16.0371 4.64844 15.0441 4.97144 14.2231 5.49344C14.1123 5.56581 13.9883 5.61548 13.8582 5.63956C13.7281 5.66365 13.5945 5.66168 13.4652 5.63376C13.3358 5.60584 13.2133 5.55254 13.1047 5.47693C12.9961 5.40132 12.9036 5.30492 12.8326 5.19331C12.7615 5.08169 12.7133 4.95709 12.6908 4.82671C12.6682 4.69633 12.6718 4.56278 12.7012 4.43378C12.7306 4.30478 12.7854 4.18291 12.8623 4.07523C12.9391 3.96754 13.0366 3.87618 13.1491 3.80645C14.2751 3.08944 15.7891 2.56044 17.5571 2.90944C19.2621 3.24545 20.8671 4.38544 21.7631 6.09645C22.6731 7.83444 22.8161 10.0844 21.7451 12.5704C20.9571 14.4004 19.4481 16.1004 17.8911 17.5274C16.3201 18.9674 14.6191 20.2004 13.3601 21.0774C12.961 21.3553 12.4864 21.5043 12.0001 21.5043C11.5138 21.5043 11.0392 21.3553 10.6401 21.0774C9.38008 20.2004 7.68008 18.9674 6.10808 17.5274C4.55008 16.1014 3.04208 14.3994 2.25408 12.5694C1.18308 10.0834 1.32608 7.83345 2.23608 6.09545C3.13308 4.38445 4.73708 3.24544 6.44208 2.90844V2.90944Z" fill="#FF3C00"/>
</svg>

<svg xmlns="http://www.w3.org/2000/svg" fill="none" viewBox="0 0 24 24"><path fill="#ff3c00" d="M6.442 2.91c1.77-.35 3.282.18 4.408.896a1 1 0 0 1 .457.953l-.244 2.225 3.467 2.167a1 1 0 0 1 .095 1.63l-2.545 2.034 3.05 4.191a1 1 0 1 1-1.665 1.108L9.907 13.16a1 1 0 0 1 .208-1.335l2.158-1.726L9.47 8.347a1 1 0 0 1-.464-.957l.24-2.192c-.707-.337-1.518-.504-2.417-.327-1.115.22-2.208.982-2.82 2.153-.6 1.145-.779 2.76.081 4.755.62 1.44 1.882 2.911 3.37 4.274 1.47 1.348 3.084 2.52 4.321 3.382a.38.38 0 0 0 .436 0c1.238-.86 2.851-2.034 4.323-3.383 1.487-1.362 2.748-2.833 3.37-4.273.86-1.996.68-3.61.081-4.755-.613-1.17-1.706-1.933-2.82-2.153-1.134-.223-2.127.1-2.948.622a1 1 0 1 1-1.074-1.687c1.126-.717 2.64-1.246 4.408-.897 1.705.336 3.31 1.476 4.206 3.187.91 1.738 1.053 3.988-.018 6.474-.788 1.83-2.297 3.53-3.854 4.957-1.57 1.44-3.272 2.673-4.53 3.55a2.38 2.38 0 0 1-2.72 0c-1.26-.877-2.96-2.11-4.533-3.55C4.55 16.101 3.042 14.4 2.254 12.57c-1.07-2.486-.928-4.736-.018-6.474.897-1.71 2.501-2.85 4.206-3.187z"/></svg>
